svg/fluentui-system-icons/ic_fluent_chat_video_20_regular.svg

<svg width="20" height="20" viewBox="0 0 20 20" fill="none" xmlns="http://www.w3.org/2000/svg">
<path d="M6 8C6 7.44772 6.44772 7 7 7H10C10.5523 7 11 7.44772 11 8V12C11 12.5523 10.5523 13 10 13H7C6.44772 13 6 12.5523 6 12V8ZM12 9L13.1464 7.85355C13.4614 7.53857 14 7.76165 14 8.20711V11.7929C14 12.2383 13.4614 12.4614 13.1464 12.1464L12 11V9ZM10 2C14.4183 2 18 5.58172 18 10C18 14.4183 14.4183 18 10 18C8.72679 18 7.49591 17.7018 6.38669 17.1393L6.266 17.075L2.62109 17.9851C2.31127 18.0625 2.02622 17.8369 2.00131 17.5438L2.00114 17.4624L2.01493 17.3787L2.925 13.735L2.86169 13.6153C2.4066 12.7186 2.12433 11.7422 2.03275 10.7283L2.00738 10.3463L2 10C2 5.58172 5.58172 2 10 2ZM10 3C6.13401 3 3 6.13401 3 10C3 11.217 3.31054 12.3878 3.89352 13.4249C3.94046 13.5084 3.9621 13.603 3.95692 13.6973L3.94274 13.7912L3.187 16.812L6.21104 16.0583C6.27294 16.0429 6.33662 16.0396 6.39873 16.0479L6.4903 16.0691L6.57701 16.1075C7.61362 16.6898 8.7837 17 10 17C13.866 17 17 13.866 17 10C17 6.13401 13.866 3 10 3Z" fill="#212121"/>
</svg>

<svg xmlns="http://www.w3.org/2000/svg" width="20" height="20"><path d="M6 8a1 1 0 0 1 1-1h3a1 1 0 0 1 1 1v4a1 1 0 0 1-1 1H7a1 1 0 0 1-1-1V8Zm6 1 1.146-1.146a.5.5 0 0 1 .854.353v3.586a.5.5 0 0 1-.854.353L12 11V9Zm-2-7a8 8 0 1 1-3.613 15.14l-.121-.065-3.645.91a.5.5 0 0 1-.62-.441v-.082l.014-.083.91-3.644-.063-.12a7.95 7.95 0 0 1-.83-2.887l-.025-.382L2 10a8 8 0 0 1 8-8Zm0 1a7 7 0 0 0-6.106 10.425.5.5 0 0 1 .063.272l-.014.094-.756 3.021 3.024-.754a.502.502 0 0 1 .188-.01l.091.021.087.039A7 7 0 1 0 10 3Z"/></svg>
